symbolic/24x24/apps/notable.svg

<svg xmlns="http://www.w3.org/2000/svg" width="24" height="24" version="1">
 <path style="opacity:0.2" d="M 3.5,2.5 C 3.396125,2.5 3.295088,2.511334 3.1972656,2.53125 3.0997486,2.551163 3.0055493,2.579449 2.9160156,2.617187 2.8262265,2.6550391 2.7399315,2.7020528 2.6601562,2.7558594 2.261551,3.0249467 2,3.4808932 2,4 V 17.5 L 3.9804688,20.328125 4.1015625,20.5 4.3339844,20.833984 5.5,22.5 6.6660156,20.833984 6.8984375,20.5 7.0195312,20.328125 9,17.5 v -2.787109 l 4.859375,5.984375 c 0.485629,0.645378 1.109887,1.268991 1.855469,1.576172 C 15.943617,22.414371 16.210519,22.5 16.5,22.5 h 0.833984 1.115235 1.216797 H 20.5 C 21.331,22.5 22,21.831 22,21 V 4 C 22,3.169 21.331,2.5 20.5,2.5 H 19.666016 17.333984 16.5 C 15.668999,2.5 15,3.169 15,4 v 6.587891 L 8.6308594,3.0175781 c -0.010957,-0.012621 -0.019882,-0.026819 -0.03125,-0.039063 l -0.00977,-0.00977 h -0.00195 C 8.5127931,2.8895009 8.430665,2.8171703 8.3398438,2.7558594 8.1805004,2.6484065 7.9980596,2.5711353 7.8027344,2.53125 7.7049481,2.5113339 7.6038753,2.5 7.5,2.5 H 6.6660156 4.3339844 Z"/>
 <path style="fill:#fabe5c" d="M 3.5,2.5 C 3.432496,2.5 3.3650851,2.5076 3.296875,2.521484 3.228456,2.535455 3.16565,2.554406 3.109375,2.578125 3.050475,2.602955 2.9925831,2.634087 2.9394531,2.669922 2.6738673,2.8492116 2.5,3.1488426 2.5,3.5 v 13.341797 l 1.8886719,2.699219 0.1210937,0.171875 a 0.50005,0.50005 0 0 0 0.00195,0.002 L 4.7441406,20.046875 5.5,21.126953 6.2558594,20.046875 6.4882812,19.714844 a 0.50005,0.50005 0 0 0 0.00195,-0.002 L 6.6113281,19.541016 8.5,16.841797 v -2.628906 a 0.50005,0.50005 0 0 1 0.8886719,-0.314453 l 4.8593751,5.984374 a 0.50005,0.50005 0 0 1 0.01172,0.01367 c 0.454894,0.604533 1.030388,1.16023 1.646484,1.414063 a 0.50005,0.50005 0 0 1 0.07031,0.03711 C 16.134479,21.44494 16.30912,21.5 16.5,21.5 h 0.833984 1.115235 1.216797 H 20.5 c 0.562649,0 1,-0.437351 1,-1 v -17 c 0,-0.5626486 -0.437351,-1 -1,-1 H 19.666016 17.333984 16.5 c -0.56265,0 -1,0.437351 -1,1 v 6.587891 a 0.50005,0.50005 0 0 1 -0.882812,0.322265 L 8.2539062,2.8457031 C 8.2182952,2.8046961 8.2236781,2.8111347 8.2363281,2.8242188 A 0.50005,0.50005 0 0 1 8.2246094,2.8125 C 8.1702128,2.7550979 8.1160749,2.7074069 8.0605469,2.6699219 7.9557555,2.5992564 7.8342187,2.5482534 7.703125,2.5214844 7.6349998,2.5076104 7.567504,2.5 7.5,2.5 H 6.6660156 4.3339844 Z M 8.2617188,2.8476562 8.3828125,2.96875 H 8.5820312 A 0.50005,0.50005 0 0 1 8.2617188,2.8476562 Z"/>
 <path style="fill:#faab00" d="M 6.8880427,3.2345826 C 5.6329932,3.5946961 6.916591,2.1069584 6.8251955,2.180664 l -0.694336,0.5605469 13.2116465,16.3824741 1.620086,2.008911 v 0 l 0.326063,-0.875454 -0.02282,-1.786033 -0.08285,-0.739964 -0.32188,-0.678449 L 8.5904616,2.4681957 7.9381165,2.5597356 C 7.7012015,2.2659584 7.136532,2.306696 6.8251955,2.180664 Z"/>
 <path style="fill:#ffcd6e" d="M 4.1845703,4.3105469 3.4902344,4.8701172 C 2.7971664,5.4290385 2.7639408,6.530288 3.4160156,7.338867 L 13.858451,20.196873 c 0.719601,0.956317 1.738536,1.884308 3.015481,1.767565 L 17.333334,22 h 1.116861 z"/>
 <path style="fill:#f5b94a" d="M 6.1308595,2.741211 4.1845703,4.3105469 18.450195,22 20.962592,21.132596 20.65262,20.748231 Z"/>
 <path style="fill:#faab00" d="m 19.666667,2 v 20 h 0.833072 C 21.330739,22 22,21.331 22,20.5 V 3.5 C 22,2.669 21.330739,2 20.499739,2 Z"/>
 <path style="fill:#f5b94a" d="M 4.3333333,2 V 20.333008 L 5.5,22 6.6666667,20.333008 V 2 Z"/>
 <path style="fill:#faab00" d="M 6.6666667,2 V 20.333008 L 9,17 V 3.5 C 9,2.9808932 8.7387096,2.5249467 8.3401044,2.2558594 c -2.268e-4,-1.529e-4 -7e-4,1.527e-4 -9.333e-4,0 C 8.1798277,2.1484065 7.998559,2.0701588 7.8032338,2.0302735 c -2.912e-4,-5.93e-5 -6.067e-4,5.91e-5 -9.333e-4,0 C 7.7045142,2.0103574 7.6036148,2 7.4997395,2 Z"/>
 <path style="fill:#ffcd6e" d="M 3.5002604,2 C 3.3963854,2 3.2945671,2.0103574 3.1967447,2.0302735 3.0992278,2.0501864 3.0046379,2.0794488 2.9151042,2.1171875 2.8253151,2.1550391 2.7396712,2.2020528 2.6598959,2.2558594 2.2612906,2.5249467 2,2.9808932 2,3.5 V 17 l 2.3333333,3.333008 V 2 Z"/>
 <path style="fill:#ffcd6e" d="M 16.500261,2 C 15.66926,2 15,2.669 15,3.5 v 17 c 0,0.831 0.66926,1.5 1.500261,1.5 h 0.833072 V 2 Z"/>
 <rect style="fill:#f5b94a" width="2.333" height="20" x="17.33" y="2"/>
 <rect style="fill:#8d8d8d" width="7" height="2" x="15" y="6"/>
 <path style="fill:#ff7863" d="M 16.500261,2 C 15.66926,2 15,2.6689997 15,3.5 V 6 h 7 V 3.5 C 22,2.6689997 21.330739,2 20.499739,2 Z"/>
 <path style="fill:#f8e2c8" d="M 2,17 3.9804688,19.828125 4.1015625,20 h 2.796875 L 7.0195312,19.828125 9,17 Z"/>
 <path style="fill:#8d6e63" d="M 4.1015625,20 5.5,22 6.8984375,20 Z"/>
 <path style="opacity:0.2;fill:#ffffff" d="M 16.500261,2 C 15.66926,2 15,2.6689997 15,3.5 V 4 c 0,-0.8310002 0.66926,-1.5 1.500261,-1.5 h 3.999478 C 21.330739,2.5 22,3.1689997 22,4 V 3.5 C 22,2.6689997 21.330739,2 20.499739,2 Z"/>
 <rect style="opacity:0.2" width="7" height=".5" x="15" y="6"/>
 <rect style="opacity:0.2;fill:#ffffff" width="7" height=".5" x="15" y="8"/>
 <path style="opacity:0.2;fill:#ffffff" d="m 2,17 0.35,0.5 h 6.3 L 9,17 Z"/>
 <path style="opacity:0.2;fill:#ffffff" d="M 3.5 2 C 3.396125 2 3.295088 2.0113339 3.1972656 2.03125 C 3.0997487 2.0511629 3.0055493 2.0794488 2.9160156 2.1171875 C 2.8262265 2.1550391 2.7399315 2.2020528 2.6601562 2.2558594 C 2.2615512 2.5249467 2 2.9808932 2 3.5 L 2 4 C 2 3.4808932 2.2615512 3.0249467 2.6601562 2.7558594 C 2.7399316 2.7020528 2.8262265 2.6550396 2.9160156 2.6171875 C 3.0055493 2.5794495 3.0997486 2.551163 3.1972656 2.53125 C 3.295088 2.511334 3.396125 2.5 3.5 2.5 L 4.3339844 2.5 L 6.6660156 2.5 L 7.5 2.5 C 7.6038753 2.5 7.7049481 2.5113339 7.8027344 2.53125 C 7.9980596 2.5711353 8.1805002 2.6484065 8.3398438 2.7558594 C 8.4306648 2.8171703 8.5127943 2.8895058 8.5878906 2.96875 L 8.5898438 2.96875 L 8.5996094 2.9785156 C 8.6109774 2.9907596 8.6199024 3.0049571 8.6308594 3.0175781 L 15 10.585938 L 15 10.085938 L 8.6308594 2.5175781 C 8.6199023 2.5049571 8.6109774 2.4907593 8.5996094 2.4785156 L 8.5898438 2.46875 L 8.5878906 2.46875 C 8.5127931 2.3895009 8.4306648 2.3171703 8.3398438 2.2558594 C 8.1805002 2.1484065 7.9980596 2.0711353 7.8027344 2.03125 C 7.7049481 2.0113339 7.6038753 2 7.5 2 L 6.6660156 2 L 4.3339844 2 L 3.5 2 z"/>
</svg>

<svg xmlns="http://www.w3.org/2000/svg" width="24" height="24" version="1"><path style="opacity:.2" d="M3.5 2.5a1.515 1.515 0 0 0-.84.256C2.262 3.025 2 3.48 2 4v13.5l1.98 2.828.122.172.232.334L5.5 22.5l1.166-1.666.232-.334.122-.172L9 17.5v-2.787l4.86 5.984c.485.646 1.11 1.27 1.855 1.576.229.141.496.227.785.227h4c.831 0 1.5-.669 1.5-1.5V4c0-.831-.669-1.5-1.5-1.5h-4c-.831 0-1.5.669-1.5 1.5v6.588l-6.37-7.57-.03-.04-.01-.01h-.002a1.498 1.498 0 0 0-.248-.212A1.496 1.496 0 0 0 7.5 2.5H4.334z"/><path style="fill:#fabe5c" d="M3.5 2.5a1.015 1.015 0 0 0-.56.17.992.992 0 0 0-.44.83v13.342l1.889 2.699.12.172a.5.5 0 0 0 .003.002l.232.332.756 1.08.756-1.08.232-.332a.5.5 0 0 0 .002-.002l.121-.172 1.889-2.7v-2.628a.5.5 0 0 1 .889-.315l4.859 5.985a.5.5 0 0 1 .012.013c.455.605 1.03 1.16 1.646 1.415a.5.5 0 0 1 .07.037.985.985 0 0 0 .524.152h4c.563 0 1-.437 1-1v-17c0-.563-.437-1-1-1h-4c-.563 0-1 .437-1 1v6.588a.5.5 0 0 1-.883.322L8.254 2.846c-.036-.041-.03-.035-.018-.022a.5.5 0 0 1-.011-.011 1 1 0 0 0-.164-.143.995.995 0 0 0-.561-.17H4.334zm4.762.348.12.12h.2a.5.5 0 0 1-.32-.12z"/><path style="fill:#faab00" d="M6.888 3.235c-1.255.36.029-1.128-.063-1.054l-.694.56 13.212 16.383 1.62 2.009.326-.876-.023-1.786-.083-.74-.322-.678L8.591 2.468l-.653.092c-.237-.294-.801-.253-1.113-.38z"/><path style="fill:#ffcd6e" d="m4.185 4.31-.695.56c-.693.559-.726 1.66-.074 2.469l10.442 12.858c.72.956 1.739 1.884 3.016 1.767l.46.036h1.116z"/><path style="fill:#f5b94a" d="m6.13 2.741-1.945 1.57L18.45 22l2.513-.867-.31-.385z"/><path style="fill:#faab00" d="M19.667 2v20h.833c.83 0 1.5-.669 1.5-1.5v-17c0-.831-.67-1.5-1.5-1.5z"/><path style="fill:#f5b94a" d="M4.333 2v18.333L5.5 22l1.167-1.667V2z"/><path style="fill:#faab00" d="M6.667 2v18.333L9 17V3.5c0-.52-.261-.975-.66-1.244a1.493 1.493 0 0 0-.537-.226A1.513 1.513 0 0 0 7.5 2z"/><path style="fill:#ffcd6e" d="M3.5 2a1.523 1.523 0 0 0-.585.117A1.5 1.5 0 0 0 2 3.5V17l2.333 3.333V2zM16.5 2c-.83 0-1.5.669-1.5 1.5v17c0 .831.67 1.5 1.5 1.5h.833V2z"/><path style="fill:#f5b94a" d="M17.33 2h2.333v20H17.33z"/><path style="fill:#8d8d8d" d="M15 6h7v2h-7z"/><path style="fill:#ff7863" d="M16.5 2c-.83 0-1.5.669-1.5 1.5V6h7V3.5c0-.831-.67-1.5-1.5-1.5z"/><path style="fill:#f8e2c8" d="m2 17 1.98 2.828.122.172h2.796l.122-.172L9 17z"/><path style="fill:#8d6e63" d="M4.102 20 5.5 22l1.398-2z"/><path style="opacity:.2;fill:#fff" d="M16.5 2c-.83 0-1.5.669-1.5 1.5V4c0-.831.67-1.5 1.5-1.5h4c.83 0 1.5.669 1.5 1.5v-.5c0-.831-.67-1.5-1.5-1.5z"/><path style="opacity:.2" d="M15 6h7v.5h-7z"/><path style="opacity:.2;fill:#fff" d="M15 8h7v.5h-7zM2 17l.35.5h6.3L9 17zM3.5 2a1.515 1.515 0 0 0-.84.256C2.262 2.525 2 2.98 2 3.5V4a1.497 1.497 0 0 1 1.5-1.5h4a1.514 1.514 0 0 1 .84.256c.09.061.173.134.248.213h.002l.01.01c.011.012.02.026.03.039L15 10.586v-.5L8.63 2.518l-.03-.04-.01-.01h-.002a1.498 1.498 0 0 0-.248-.212A1.496 1.496 0 0 0 7.5 2h-4z"/></svg>
